X:1
T:Domine Deus meus
T:Ignatio Donati
T:Source : Primo libro di Motetti a voce sola---Venetia---A.Vincenti---1634. Editor : André Vierendeels (06/01/17).
T:Notes : Original clefs : C1, F4 Figures in BC are notated in original print Editorial accidentals above the staff "Canto o Tenore" 
T:Domine Deus meus
T:©
T:©
T:©
T:©
T:©
T:©
T:©
C:Ignatio Donati
Z:©
%%score 1 2
L:1/8
Q:1/4=121
M:4/4
K:F
V:1 treble nm="Soprano" snm="S"
V:2 bass nm="MusicXML Part"
V:1
 z4 G4- | G3 A B2 GA | ^F4 F4 | z4 A4- | A3 =B c2 AB | ^G4 G4 | z4 A4- | A2 E2 G2 FE | ^F2 D2 d4- | %9
w: Do-|* mi- ne De- us|me- us,|Do-|* mi- ne De- us|me- us,|su-|* sci- pe pre- ces|me- as, su-|
 d2 A2 c2 BA | B4- B/F/G/A/ B/A/B/G/ | A8 | G8 | z2 c2 c4 | G2 G2 A3 E | E3 D E4- | E3 F G4 | %17
w: * sci- pe pre- ces|me- * * * * * * * *||as|in- cli-|na, in cli- na|Chri- ste mi|_ mens tu-|
 G4 z AFE | F2 F/C/D/E/ F/G/A/B/ cd | D8 | C8 | z4 F4- | F2 ^FF F2 F2 | G8- | G4- GGFE | %25
w: as, in ver- ba|o- * * * * * * * * * ras|mie-|i,|et|_ mi- se- re- re|mi-|* * hi pec- ca-|
 ^F2 G2- G/F/C/D/ E/D/D/C/ | D8 | z4 G4- | G2 ^GG G2 G2 | A8- | A4- AAGF | %31
w: to- * * * * * * * * *|ri,|et|_ mi- se- re- re|mi-|* * hi pec- ca-|
 G2 A2- A/G/D/E/ F/E/E/D/ | E8 | z2 AB c3 F | G3 G E2 BA | G2 D2 E3 E | D2 dc B2 G2- | GGAB c4- | %38
w: to- * * * * * * * * *|ri,|sol- ve, sol- ve|vin- cu- la, sa- na,|sa- na Do- mi-|ne, de- lme, de- le|_ in- i- qui- ta-|
 c4 B4 | A8 | G8 | z4 E4- | E2 EE F3 G | E4 z2 AG | G3 F F4 | z2 c2 A4 | G4 z2 d2 | =B4 A4 | %48
w: * tes|me-|os,|Do-|* mi- ne, Ie- *|su, te de-|si- de- ro|et que-|ro, te|ve- lo|
 z4 E4 | F6 G2 | E4 z2 E2 | A3 G G2 FE | F4 F4- | F2 G2 A3 A | ^C4 D4 | E6 D2 | D8 | z2 d3 A A2 | %58
w: et|lan- *|guet, et|lan- guet a- ni- ma|me- a,|_ a- mo- ris|tu- i|vul- ne-|te,|Cu- pi- o,|
 =B>B BA c4 | c2 A2 B3 F | G8 | F4 B4- | B2 GF A3 E | F3 ^F F2 d2 | =B2 BA c3 G | A6 A2 | B6 cd | %67
w: cu- pi- o di- sol-|vi et es- se|te-|cum, O|_ Chri- ste mi dul-|cis- si- me, o-|sten- de, o- sten- de|mi- hi,|fa- ci- em|
 _e2 e2 e2 dc | d4 c2 G2 | A2 B2 E2 Fc | B2 A2 G4- | G4 F/E/F/G/ A/E/F/G/ | F/E/F/G/ A/B/c/d/ E4 | %73
w: tu- am, fa- ci- em|tu- am et|sal- vus e- ro, et|sal- vus e-|||
 D4 z2 A2 | B2 c2 ^F2 Gd | c2 B2 A4- | A/G/^F/E/ F/G/A/B/ c/B/A/G/ c/A/B/G/ | %77
w: ro, et|sal- vus e- ro, et|sal- vus e-||
 A/E/^F/G/ A/B/c/d/ A4 | G8 |] %79
w: |ro.|
V:2
"^BC" G,,8 | G,,8 |"^#" D,8 |"^-natural" D,8 | A,,8 |"^#" E,6 D,2 | ^C,4 D,4 | ^C,8 |"^#" D,6 E,2 | %9
 ^F,8 | G,4 _E,4 |"^6""^-natural""^#" C,4 D,4 |"^-natural" G,,8 | C,8 |"^#" C,2 =B,,2 A,,4 | %15
"^#" A,,8 |"^#" A,,4 =B,,4 | C,8 | A,,8 |"^-natural""^-natural" G,,2 F,,2 G,,4 | C,8 | B,,6 C,2 | %22
"^#" D,8 | =B,,4 C,4 |"^7 6" A,,8 |"^6 7 6" A,,8 |"^-natural" G,,4 G,,4 | C,6 D,2 |"^#" E,8 | %29
 ^C,4 D,4 |"^7 6" B,,8 | B,,8 |"^#" A,,4 A,,4 | F,,4 F,2 D,2 | C,4 G,,2 G,,2 |"^#""^#" A,,4 A,,4 | %36
"^#" D,4 G,4 | _E,8 | D,6 C,2 |"^#" D,8 |"^-natural""^-natural" G,,4 G,,4 | C,6 B,,2 | %42
"^#" A,,6 G,,2 |"^#""^#" A,,4 A,,4 | B,,2 C,2 F,,2 F,2 |"^#" _E,4 D,4 | G,,2 G,2 F,4 | %47
"^#""^#" E,4 A,,4 |"^#" A,,8 |"^#" A,,8 |"^#" A,,8 |"^#" A,,8 | D,6 C,2 | B,,8 |"^#""^3 4" A,,8 | %55
"^#""^3 4" A,,8 |"^#""^#" D,4 D,4 |"^#" D,8 |"^-natural" G,4 E,4 | F,4 D,4 | C,8 | F,,4 G,,4 | %62
"^#" B,,4 A,,4 |"^#""^#" D,4 D,4 |"^-natural" G,4 E,4 |"^#" ^C,4 D,4 | G,2 F,2 _E,2 D,2 | %67
"^b""^#" C,8 |"^-natural" G,4 C,4- | C,8- | C,6 B,,2 |"^#""^7 6" A,,8 |"^#" A,,8 |"^#" D,8 | %74
"^#" D,8- | D,6 ^C,2 |"^#" D,8- | D,8 | G,,8 |] %79

